assets/1. Faces/Palm down hand/Medium/Color/palm_down_hand_color_medium.svg

<svg width="100%" height="100%" viewBox="0 0 32 32" fill="none" xmlns="http://www.w3.org/2000/svg">
<path d="M14.8053 17.9539C13.6276 17.7324 12.8478 16.5894 13.0674 15.4015L14.0064 10.2805L18.2748 11.08L17.3326 16.2009C17.1162 17.3889 15.983 18.1755 14.8053 17.9539Z" fill="url(#paint0_radial_20020_6758)"/>
<path d="M14.8053 17.9539C13.6276 17.7324 12.8478 16.5894 13.0674 15.4015L14.0064 10.2805L18.2748 11.08L17.3326 16.2009C17.1162 17.3889 15.983 18.1755 14.8053 17.9539Z" fill="url(#paint1_linear_20020_6758)"/>
<path d="M14.8053 17.9539C13.6276 17.7324 12.8478 16.5894 13.0674 15.4015L14.0064 10.2805L18.2748 11.08L17.3326 16.2009C17.1162 17.3889 15.983 18.1755 14.8053 17.9539Z" fill="url(#paint2_radial_20020_6758)"/>
<path d="M14.8053 17.9539C13.6276 17.7324 12.8478 16.5894 13.0674 15.4015L14.0064 10.2805L18.2748 11.08L17.3326 16.2009C17.1162 17.3889 15.983 18.1755 14.8053 17.9539Z" fill="url(#paint3_linear_20020_6758)"/>
<path d="M18.5637 20.0091C17.3597 19.8871 16.4832 18.8147 16.602 17.6107L17.1221 12.4255L21.4789 12.8622L20.9588 18.0474C20.84 19.2514 19.7676 20.1311 18.5637 20.0091Z" fill="url(#paint4_radial_20020_6758)"/>
<path d="M18.5637 20.0091C17.3597 19.8871 16.4832 18.8147 16.602 17.6107L17.1221 12.4255L21.4789 12.8622L20.9588 18.0474C20.84 19.2514 19.7676 20.1311 18.5637 20.0091Z" fill="url(#paint5_radial_20020_6758)"/>
<path d="M18.5637 20.0091C17.3597 19.8871 16.4832 18.8147 16.602 17.6107L17.1221 12.4255L21.4789 12.8622L20.9588 18.0474C20.84 19.2514 19.7676 20.1311 18.5637 20.0091Z" fill="url(#paint6_radial_20020_6758)"/>
<path d="M18.5637 20.0091C17.3597 19.8871 16.4832 18.8147 16.602 17.6107L17.1221 12.4255L21.4789 12.8622L20.9588 18.0474C20.84 19.2514 19.7676 20.1311 18.5637 20.0091Z" fill="url(#paint7_linear_20020_6758)"/>
<path d="M23.7232 20.7213C22.5353 20.9429 21.3923 20.1563 21.1707 18.9683L20.0442 12.9568L24.5227 13.0447L25.4762 18.1689C25.6945 19.3568 24.9111 20.4998 23.7232 20.7213Z" fill="url(#paint8_radial_20020_6758)"/>
<path d="M23.7232 20.7213C22.5353 20.9429 21.3923 20.1563 21.1707 18.9683L20.0442 12.9568L24.5227 13.0447L25.4762 18.1689C25.6945 19.3568 24.9111 20.4998 23.7232 20.7213Z" fill="url(#paint9_radial_20020_6758)"/>
<g filter="url(#filter0_iii_20020_6758)">
<path d="M12.4548 16.8562C12.4548 15.1546 13.3416 14.281 14.8533 13.7772C15.8298 13.5662 19.3845 13.6287 19.3845 13.6287C20.5173 13.6287 21.1638 14.0766 21.822 14.6834L25.5798 17.8943C26.5642 18.8006 28.0639 19.0127 29.072 17.9724C30.1251 16.8872 30.0095 15.2381 28.7283 14.1287L22.9626 9.14104C21.6623 7.97237 21.0408 7.32382 18.6536 7.32382L9.6814 7.32382C4.85259 7.29492 1.90369 10.2537 1.90369 14.1287C1.90369 16.4725 3.98642 18.9358 5.58765 20.5974L7.3064 22.2308C8.66771 23.438 10.4392 24.4568 12.283 24.4568H14.1111C14.7018 24.4568 15.1635 24.3981 15.9001 24.8396C16.8055 25.3822 18.2302 25.2596 18.9783 24.5115C19.63 23.8597 19.8287 22.9245 19.4819 22.0673C18.8808 20.5704 17.2205 19.9412 15.6033 19.6287L14.4783 19.4724C13.033 19.3709 12.4548 17.7381 12.4548 16.8562Z" fill="url(#paint10_linear_20020_6758)"/>
</g>
<path d="M12.4548 16.8562C12.4548 15.1546 13.3416 14.281 14.8533 13.7772C15.8298 13.5662 19.3845 13.6287 19.3845 13.6287C20.5173 13.6287 21.1638 14.0766 21.822 14.6834L25.5798 17.8943C26.5642 18.8006 28.0639 19.0127 29.072 17.9724C30.1251 16.8872 30.0095 15.2381 28.7283 14.1287L22.9626 9.14104C21.6623 7.97237 21.0408 7.32382 18.6536 7.32382L9.6814 7.32382C4.85259 7.29492 1.90369 10.2537 1.90369 14.1287C1.90369 16.4725 3.98642 18.9358 5.58765 20.5974L7.3064 22.2308C8.66771 23.438 10.4392 24.4568 12.283 24.4568H14.1111C14.7018 24.4568 15.1635 24.3981 15.9001 24.8396C16.8055 25.3822 18.2302 25.2596 18.9783 24.5115C19.63 23.8597 19.8287 22.9245 19.4819 22.0673C18.8808 20.5704 17.2205 19.9412 15.6033 19.6287L14.4783 19.4724C13.033 19.3709 12.4548 17.7381 12.4548 16.8562Z" fill="url(#paint11_radial_20020_6758)"/>
<g filter="url(#filter1_f_20020_6758)">
<path d="M21.2171 9.60531L27.9076 14.8749C28.2886 15.175 28.3425 15.7323 28.026 16.0999C27.7359 16.4368 27.2356 16.4939 26.877 16.2311L20.7146 11.7147C20.3045 11.4141 19.7954 11.281 19.2907 11.3425L14.3109 11.9486C12.3035 12.193 10.7942 13.8971 10.7942 15.9193V16.6891C10.7942 17.643 11.1351 18.5655 11.7554 19.2902L11.9305 19.4948C12.4252 20.0728 13.1211 20.4412 13.8772 20.5255L15.7957 20.7394C16.4427 20.8116 17.0487 21.0923 17.5222 21.5391L18.368 22.3372C18.6542 22.6073 18.6649 23.0592 18.3917 23.3425C18.1341 23.6096 17.714 23.6322 17.4292 23.3944L16.9921 23.0294C16.4526 22.5788 15.772 22.332 15.0691 22.332H12.8929C11.8819 22.332 10.9084 21.9492 10.1683 21.2605L6.36568 17.7227C5.31636 16.7464 4.86957 15.2833 5.19446 13.8874L5.43303 12.8624C5.94762 10.6514 7.8871 9.06453 10.1562 8.99793L18.6247 8.74939C19.5625 8.72187 20.4801 9.02483 21.2171 9.60531Z" fill="#C89B8A"/>
</g>
<defs>
<filter id="filter0_iii_20020_6758" x="1.90369" y="6.07361" width="29.1303" height="19.2507" filterUnits="userSpaceOnUse" color-interpolation-filters="sRGB">
<feFlood flood-opacity="0" result="BackgroundImageFix"/>
<feBlend mode="normal" in="SourceGraphic" in2="BackgroundImageFix" result="shape"/>
<feColorMatrix in="SourceAlpha" type="matrix" values="0 0 0 0 0 0 0 0 0 0 0 0 0 0 0 0 0 0 127 0" result="hardAlpha"/>
<feOffset dx="1.25" dy="-1.25"/>
<feGaussianBlur stdDeviation="0.75"/>
<feComposite in2="hardAlpha" operator="arithmetic" k2="-1" k3="1"/>
<feColorMatrix type="matrix" values="0 0 0 0 0.596078 0 0 0 0 0.380392 0 0 0 0 0.45098 0 0 0 1 0"/>
<feBlend mode="normal" in2="shape" result="effect1_innerShadow_20020_6758"/>
<feColorMatrix in="SourceAlpha" type="matrix" values="0 0 0 0 0 0 0 0 0 0 0 0 0 0 0 0 0 0 127 0" result="hardAlpha"/>
<feOffset dy="-0.4"/>
<feGaussianBlur stdDeviation="0.5"/>
<feComposite in2="hardAlpha" operator="arithmetic" k2="-1" k3="1"/>
<feColorMatrix type="matrix" values="0 0 0 0 0.541176 0 0 0 0 0.309804 0 0 0 0 0.435294 0 0 0 1 0"/>
<feBlend mode="normal" in2="effect1_innerShadow_20020_6758" result="effect2_innerShadow_20020_6758"/>
<feColorMatrix in="SourceAlpha" type="matrix" values="0 0 0 0 0 0 0 0 0 0 0 0 0 0 0 0 0 0 127 0" result="hardAlpha"/>
<feOffset dx="0.15" dy="0.15"/>
<feGaussianBlur stdDeviation="0.25"/>
<feComposite in2="hardAlpha" operator="arithmetic" k2="-1" k3="1"/>
<feColorMatrix type="matrix" values="0 0 0 0 0.631373 0 0 0 0 0.517647 0 0 0 0 0.427451 0 0 0 1 0"/>
<feBlend mode="normal" in2="effect2_innerShadow_20020_6758" result="effect3_innerShadow_20020_6758"/>
</filter>
<filter id="filter1_f_20020_6758" x="3.09021" y="6.74768" width="27.1422" height="18.8112" filterUnits="userSpaceOnUse" color-interpolation-filters="sRGB">
<feFlood flood-opacity="0" result="BackgroundImageFix"/>
<feBlend mode="normal" in="SourceGraphic" in2="BackgroundImageFix" result="shape"/>
<feGaussianBlur stdDeviation="1" result="effect1_foregroundBlur_20020_6758"/>
</filter>
<radialGradient id="paint0_radial_20020_6758" cx="0" cy="0" r="1" gradientUnits="userSpaceOnUse" gradientTransform="translate(15.0663 16.9597) rotate(-72.9574) scale(3.96133 3.0891)">
<stop stop-color="#7E5056"/>
<stop offset="1" stop-color="#6D3D40"/>
</radialGradient>
<linearGradient id="paint1_linear_20020_6758" x1="16.9436" y1="17.6573" x2="15.6524" y2="17.5486" gradientUnits="userSpaceOnUse">
<stop stop-color="#4F2925"/>
<stop offset="1" stop-color="#683C42" stop-opacity="0"/>
</linearGradient>
<radialGradient id="paint2_radial_20020_6758" cx="0" cy="0" r="1" gradientUnits="userSpaceOnUse" gradientTransform="translate(14.9017 13.738) rotate(80.9581) scale(4.77812 3.99542)">
<stop offset="0.72718" stop-color="#90517E" stop-opacity="0"/>
<stop offset="0.909009" stop-color="#90517E"/>
</radialGradient>
<linearGradient id="paint3_linear_20020_6758" x1="12.9291" y1="15.4319" x2="13.8479" y2="15.6063" gradientUnits="userSpaceOnUse">
<stop stop-color="#81594E"/>
<stop offset="1" stop-color="#81594E" stop-opacity="0"/>
</linearGradient>
<radialGradient id="paint4_radial_20020_6758" cx="0" cy="0" r="1" gradientUnits="userSpaceOnUse" gradientTransform="translate(18.4375 19.4062) rotate(-81.2251) scale(7.66416 1.62754)">
<stop stop-color="#9F706F"/>
<stop offset="1" stop-color="#895B57"/>
</radialGradient>
<radialGradient id="paint5_radial_20020_6758" cx="0" cy="0" r="1" gradientUnits="userSpaceOnUse" gradientTransform="translate(19.5442 13.3943) rotate(96.8313) scale(6.87836 5.87923)">
<stop offset="0.825321" stop-color="#925381" stop-opacity="0"/>
<stop offset="0.965343" stop-color="#925381"/>
</radialGradient>
<radialGradient id="paint6_radial_20020_6758" cx="0" cy="0" r="1" gradientUnits="userSpaceOnUse" gradientTransform="translate(16.064 19.4461) rotate(-56.0919) scale(7.22011 7.09831)">
<stop offset="0.635005" stop-color="#73404E" stop-opacity="0"/>
<stop offset="0.900759" stop-color="#73404E"/>
</radialGradient>
<linearGradient id="paint7_linear_20020_6758" x1="21.2426" y1="17.3085" x2="19.8607" y2="17.6303" gradientUnits="userSpaceOnUse">
<stop stop-color="#5A3432"/>
<stop offset="1" stop-color="#714548" stop-opacity="0"/>
</linearGradient>
<radialGradient id="paint8_radial_20020_6758" cx="0" cy="0" r="1" gradientUnits="userSpaceOnUse" gradientTransform="translate(23.7942 20.5505) rotate(-104.097) scale(7.18512 1.56176)">
<stop offset="0.192233" stop-color="#A37574"/>
<stop offset="1" stop-color="#8C5D5D"/>
</radialGradient>
<radialGradient id="paint9_radial_20020_6758" cx="0" cy="0" r="1" gradientUnits="userSpaceOnUse" gradientTransform="translate(23.9817 13.613) rotate(98.8826) scale(7.2324 4.46687)">
<stop offset="0.871517" stop-color="#935381" stop-opacity="0"/>
<stop offset="0.996372" stop-color="#935381"/>
</radialGradient>
<linearGradient id="paint10_linear_20020_6758" x1="9.27503" y1="22.628" x2="26.5044" y2="10.5337" gradientUnits="userSpaceOnUse">
<stop stop-color="#A47D6A"/>
<stop offset="1" stop-color="#C59C7F"/>
</linearGradient>
<radialGradient id="paint11_radial_20020_6758" cx="0" cy="0" r="1" gradientUnits="userSpaceOnUse" gradientTransform="translate(2.6875 11.375) rotate(24.8142) scale(6.40373 9.01085)">
<stop stop-color="#A27D68"/>
<stop offset="1" stop-color="#A27D68" stop-opacity="0"/>
</radialGradient>
</defs>
</svg>

<svg width="100%" height="100%" viewBox="0 0 32 32" xmlns="http://www.w3.org/2000/svg"><path fill="url(#a)" d="M14.805 17.954a2.19 2.19 0 0 1-1.738-2.552l.94-5.121 4.268.799-.942 5.12a2.17 2.17 0 0 1-2.528 1.754"/><path fill="url(#b)" d="M14.805 17.954a2.19 2.19 0 0 1-1.738-2.552l.94-5.121 4.268.799-.942 5.12a2.17 2.17 0 0 1-2.528 1.754"/><path fill="url(#c)" d="M14.805 17.954a2.19 2.19 0 0 1-1.738-2.552l.94-5.121 4.268.799-.942 5.12a2.17 2.17 0 0 1-2.528 1.754"/><path fill="url(#d)" d="M14.805 17.954a2.19 2.19 0 0 1-1.738-2.552l.94-5.121 4.268.799-.942 5.12a2.17 2.17 0 0 1-2.528 1.754"/><path fill="url(#e)" d="M18.564 20.01a2.193 2.193 0 0 1-1.962-2.4l.52-5.184 4.357.436-.52 5.185a2.186 2.186 0 0 1-2.395 1.962"/><path fill="url(#f)" d="M18.564 20.01a2.193 2.193 0 0 1-1.962-2.4l.52-5.184 4.357.436-.52 5.185a2.186 2.186 0 0 1-2.395 1.962"/><path fill="url(#g)" d="M18.564 20.01a2.193 2.193 0 0 1-1.962-2.4l.52-5.184 4.357.436-.52 5.185a2.186 2.186 0 0 1-2.395 1.962"/><path fill="url(#h)" d="M18.564 20.01a2.193 2.193 0 0 1-1.962-2.4l.52-5.184 4.357.436-.52 5.185a2.186 2.186 0 0 1-2.395 1.962"/><path fill="url(#i)" d="M23.723 20.721a2.19 2.19 0 0 1-2.552-1.753l-1.127-6.011 4.479.088.953 5.124a2.193 2.193 0 0 1-1.753 2.552"/><path fill="url(#j)" d="M23.723 20.721a2.19 2.19 0 0 1-2.552-1.753l-1.127-6.011 4.479.088.953 5.124a2.193 2.193 0 0 1-1.753 2.552"/><g filter="url(#k)"><path fill="url(#l)" d="M12.455 16.856c0-1.701.887-2.575 2.398-3.079.977-.21 4.531-.148 4.531-.148 1.133 0 1.78.448 2.438 1.054l3.758 3.211c.984.907 2.484 1.119 3.492.078 1.053-1.085.938-2.734-.344-3.843L22.963 9.14c-1.3-1.169-1.922-1.817-4.31-1.817H9.682c-4.828-.03-7.777 2.93-7.777 6.805 0 2.344 2.082 4.807 3.684 6.468l1.718 1.634c1.362 1.207 3.133 2.226 4.977 2.226h1.828c.59 0 1.053-.059 1.79.383.904.542 2.33.42 3.077-.328.652-.652.85-1.588.504-2.445-.601-1.497-2.261-2.126-3.879-2.438l-1.125-.157c-1.445-.101-2.023-1.734-2.023-2.616"/></g><path fill="url(#m)" d="M12.455 16.856c0-1.701.887-2.575 2.398-3.079.977-.21 4.531-.148 4.531-.148 1.133 0 1.78.448 2.438 1.054l3.758 3.211c.984.907 2.484 1.119 3.492.078 1.053-1.085.938-2.734-.344-3.843L22.963 9.14c-1.3-1.169-1.922-1.817-4.31-1.817H9.682c-4.828-.03-7.777 2.93-7.777 6.805 0 2.344 2.082 4.807 3.684 6.468l1.718 1.634c1.362 1.207 3.133 2.226 4.977 2.226h1.828c.59 0 1.053-.059 1.79.383.904.542 2.33.42 3.077-.328.652-.652.85-1.588.504-2.445-.601-1.497-2.261-2.126-3.879-2.438l-1.125-.157c-1.445-.101-2.023-1.734-2.023-2.616"/><g filter="url(#n)"><path fill="#C89B8A" d="m21.217 9.605 6.69 5.27a.852.852 0 0 1-1.03 1.356l-6.162-4.516a2 2 0 0 0-1.424-.373l-4.98.607a4 4 0 0 0-3.517 3.97v.77a4 4 0 0 0 .961 2.601l.175.205a3 3 0 0 0 1.947 1.03l1.919.214a3 3 0 0 1 1.726.8l.846.798a.707.707 0 0 1-.939 1.057l-.437-.365a3 3 0 0 0-1.923-.697h-2.176a4 4 0 0 1-2.725-1.072l-3.802-3.537a4 4 0 0 1-1.172-3.836l.239-1.025a5 5 0 0 1 4.723-3.864l8.469-.249a4 4 0 0 1 2.592.856"/></g><defs><radialGradient id="a" cx="0" cy="0" r="1" gradientTransform="rotate(-72.957 19.002 -1.709)scale(3.96133 3.0891)" gradientUnits="userSpaceOnUse"><stop stop-color="#7E5056"/><stop offset="1" stop-color="#6D3D40"/></radialGradient><radialGradient id="c" cx="0" cy="0" r="1" gradientTransform="matrix(.75091 4.71875 -3.94577 .6279 14.902 13.738)" gradientUnits="userSpaceOnUse"><stop offset=".727" stop-color="#90517E" stop-opacity="0"/><stop offset=".909" stop-color="#90517E"/></radialGradient><radialGradient id="e" cx="0" cy="0" r="1" gradientTransform="rotate(-81.225 20.535 -1.048)scale(7.66416 1.62754)" gradientUnits="userSpaceOnUse"><stop stop-color="#9F706F"/><stop offset="1" stop-color="#895B57"/></radialGradient><radialGradient id="f" cx="0" cy="0" r="1" gradientTransform="rotate(96.831 3.83 15.368)scale(6.87836 5.87923)" gradientUnits="userSpaceOnUse"><stop offset=".825" stop-color="#925381" stop-opacity="0"/><stop offset=".965" stop-color="#925381"/></radialGradient><radialGradient id="g" cx="0" cy="0" r="1" gradientTransform="rotate(-56.092 26.283 -5.354)scale(7.22011 7.09831)" gradientUnits="userSpaceOnUse"><stop offset=".635" stop-color="#73404E" stop-opacity="0"/><stop offset=".901" stop-color="#73404E"/></radialGradient><radialGradient id="i" cx="0" cy="0" r="1" gradientTransform="rotate(-104.097 19.911 .996)scale(7.18512 1.56176)" gradientUnits="userSpaceOnUse"><stop offset=".192" stop-color="#A37574"/><stop offset="1" stop-color="#8C5D5D"/></radialGradient><radialGradient id="j" cx="0" cy="0" r="1" gradientTransform="matrix(-1.11676 7.14566 -4.4133 -.68973 23.982 13.613)" gradientUnits="userSpaceOnUse"><stop offset=".872" stop-color="#935381" stop-opacity="0"/><stop offset=".996" stop-color="#935381"/></radialGradient><radialGradient id="m" cx="0" cy="0" r="1" gradientTransform="rotate(24.814 -24.51 11.796)scale(6.40373 9.01085)" gradientUnits="userSpaceOnUse"><stop stop-color="#A27D68"/><stop offset="1" stop-color="#A27D68" stop-opacity="0"/></radialGradient><linearGradient id="b" x1="16.944" x2="15.652" y1="17.657" y2="17.549" gradientUnits="userSpaceOnUse"><stop stop-color="#4F2925"/><stop offset="1" stop-color="#683C42" stop-opacity="0"/></linearGradient><linearGradient id="d" x1="12.929" x2="13.848" y1="15.432" y2="15.606" gradientUnits="userSpaceOnUse"><stop stop-color="#81594E"/><stop offset="1" stop-color="#81594E" stop-opacity="0"/></linearGradient><linearGradient id="h" x1="21.243" x2="19.861" y1="17.308" y2="17.63" gradientUnits="userSpaceOnUse"><stop stop-color="#5A3432"/><stop offset="1" stop-color="#714548" stop-opacity="0"/></linearGradient><linearGradient id="l" x1="9.275" x2="26.504" y1="22.628" y2="10.534" gradientUnits="userSpaceOnUse"><stop stop-color="#A47D6A"/><stop offset="1" stop-color="#C59C7F"/></linearGradient><filter id="k" width="29.13" height="19.251" x="1.904" y="6.074" color-interpolation-filters="sRGB" filterUnits="userSpaceOnUse"><feFlood flood-opacity="0" result="BackgroundImageFix"/><feBlend in="SourceGraphic" in2="BackgroundImageFix" result="shape"/><feColorMatrix in="SourceAlpha" result="hardAlpha" values="0 0 0 0 0 0 0 0 0 0 0 0 0 0 0 0 0 0 127 0"/><feOffset dx="1.25" dy="-1.25"/><feGaussianBlur stdDeviation=".75"/><feComposite in2="hardAlpha" k2="-1" k3="1" operator="arithmetic"/><feColorMatrix values="0 0 0 0 0.596078 0 0 0 0 0.380392 0 0 0 0 0.45098 0 0 0 1 0"/><feBlend in2="shape" result="effect1_innerShadow_20020_6758"/><feColorMatrix in="SourceAlpha" result="hardAlpha" values="0 0 0 0 0 0 0 0 0 0 0 0 0 0 0 0 0 0 127 0"/><feOffset dy="-.4"/><feGaussianBlur stdDeviation=".5"/><feComposite in2="hardAlpha" k2="-1" k3="1" operator="arithmetic"/><feColorMatrix values="0 0 0 0 0.541176 0 0 0 0 0.309804 0 0 0 0 0.435294 0 0 0 1 0"/><feBlend in2="effect1_innerShadow_20020_6758" result="effect2_innerShadow_20020_6758"/><feColorMatrix in="SourceAlpha" result="hardAlpha" values="0 0 0 0 0 0 0 0 0 0 0 0 0 0 0 0 0 0 127 0"/><feOffset dx=".15" dy=".15"/><feGaussianBlur stdDeviation=".25"/><feComposite in2="hardAlpha" k2="-1" k3="1" operator="arithmetic"/><feColorMatrix values="0 0 0 0 0.631373 0 0 0 0 0.517647 0 0 0 0 0.427451 0 0 0 1 0"/><feBlend in2="effect2_innerShadow_20020_6758" result="effect3_innerShadow_20020_6758"/></filter><filter id="n" width="27.142" height="18.811" x="3.09" y="6.748" color-interpolation-filters="sRGB" filterUnits="userSpaceOnUse"><feFlood flood-opacity="0" result="BackgroundImageFix"/><feBlend in="SourceGraphic" in2="BackgroundImageFix" result="shape"/><feGaussianBlur result="effect1_foregroundBlur_20020_6758" stdDeviation="1"/></filter></defs></svg>
